public/avatar/body/193.svg

<svg xmlns:xlink="http://www.w3.org/1999/xlink" height="82" width="84.85" xmlns="http://www.w3.org/2000/svg"><g transform="translate(37.4 42.25)"><use height="38.95" transform="translate(-12.45 -17.95)" width="33.05" xlink:href="#a"/><use height="23.75" transform="translate(-12.3 -2.35)" width="32.75" xlink:href="#b"/></g><defs><path d="M27.35 7.4q2.15 4.15 3.55 8.75 1.45 4.7 1.15 9.5-.35 4.95-4.2 8.1-3.8 3.2-8.75 4.05l-2.6.2q-3.6 0-7.05-1.15-4.65-1.6-7.1-5.5Q-.2 27.4.05 23q.2-4.4 2-9.3Q3.85 8.75 7 5.05 10.1 1.3 14.7.1l1.8-.1q1.9.05 3.7.8 4.75 2.05 7.15 6.6" fill="#c98036" fill-rule="evenodd" transform="translate(-.05)" id="c"/><path d="M27.35 7.4Q24.95 2.85 20.2.8 17.55-.3 14.7.1 10.1 1.3 7 5.05q-3.15 3.7-4.95 8.65-1.8 4.9-2 9.3-.25 4.4 2.3 8.35 2.45 3.9 7.1 5.5 4.65 1.55 9.65.95 4.95-.85 8.75-4.05 3.85-3.15 4.2-8.1.3-4.8-1.15-9.5-1.4-4.6-3.55-8.75Z" fill="none" stroke="#000" stroke-linecap="round" stroke-linejoin="round" transform="translate(.45 .5)" id="d"/><path d="m9.85-13.1.45.85q1.65 2.35 3.75 7.7-2.6 4.55-11.8 2.8L.2-2.95v.1q-1.3.95-2.15 1.2Q-11.2-.15-13.7-4.8l1.8-3.9q2.1-4.05 3.45-5.1l3.35-.3q2.35.05 3.95 1l.4.2.25.2.85.8.05-.05v-.2Q2.7-15 9.05-13.7l.05.05.75.55" fill="#f3b372" fill-rule="evenodd" transform="translate(13.7 14.1)" id="g"/><use height="38" width="32.05" xlink:href="#c" id="e"/><use height="38.95" width="33.05" xlink:href="#d" id="f"/><g id="a" transform="translate(16.5 19.5)"><use height="38" transform="translate(-16 -19)" width="32.05" xlink:href="#e"/><use height="38.95" transform="translate(-16.5 -19.5)" width="33.05" xlink:href="#f"/><use height="12.85" transform="translate(-13.7 -14.1)" width="27.75" xlink:href="#g"/></g><g id="b" fill-rule="evenodd"><path d="M5.25 12.8q.55.85.05 1.9l-.2.3-.1.1-1.2.6-.1.05-.05-.05-.7-.45q.9.3 1.75-.25l.1-.2.4-.8-.3-.75-.6-.55.95.1M4 8.35 3 5.9l1.15 1.45L5.5 6.6l-.95 1.5-.55.25" fill="#1c140c" transform="translate(12.3 2.35)"/><path d="M4.55 8.1q7.9-4.25 14.75-9.85l-.15-.6 1.3.6L20.4 0l-.25.8-.25.1-.05-.1q-1.1 2.05-1.1 4.15l.25 1q1 1.75 1.4 4l-.05 1-.8.95-5.1.35 1.7-.4 1.65-.75.15-.15-5.5.5-6.4.1-7.7-.25L3 10.7l.4-.3.15-.4-.3-.65q-2-.3-3.8-1.5L-5.1 4.6l-1.2-.95-4.2-3.2q1 1.05 1.35 2.25 1 3.6.9 7.4l5.05 1.1-5.9-.25-.1.45 9.55.9 5.95.3 1.65.05-2.7.15-.95-.1-1.55.05-11.85-.95-1.95-.45-.6-.4H-12v-1h.05q-.3-1.75.75-3.3l.5-.35q.55-.9.25-2.05-.6-2.6-1.85-4.8l.25-1.25q.5-.25.95-.55l4.95 3.7 6 4.35L1.4 7Q2.6 8.05 4 8.35l.55-.25M5.1 15l13.2-1.2.1.5-.05.45-.3.9-1.7.6-1.45.2 2.75-.8-.45-.1.35-.65.35-.4.05-.05H16.8l-4.65.5L5 15.1l.1-.1m3.65 4.6.9.1q-3.2 2.45-7.25 1.4l-2.45-.65.65-.3.8.4 1.05.15 4.85-.25q.75-.4 1.45-.85m-16.6-3.55H-9.3q-.8-.65-.85-1.85l.05-1q2.35 1.1 4.85 1.15l7.7.55.15.15-12.3-.9.4.8.1.05.4.65.95.4M19.35 1l-1 2.2Q17.7 4.9 18 6.75l.55-.7q-.35-2.65.8-5.05M4 9.2l-.15-.1.1.05.05.05M-11.2.55q.8 1.55 1.35 3.3.35 1.25-.25 2.35l.5.55q.4-1.85-.35-3.55L-11.2.55M18 6.75l.4.95q.7 1.3 2 2.25-1.3-.95-2-2.25l-.4-.95m2.35 4.2h-2.4 2.4m-32.3-1 1.3-1.6 1.05-1.6-1.05 1.6-1.3 1.6m2.85 1h-2.55 2.55" fill="#2b0112" transform="translate(12.3 2.35)"/><path d="m14.45 12.25-1.8.25-4.7.15-1.65-.05-5.95-.3-9.55-.9.1-.45 5.9.25 1.55.1 7.7.25 6.4-.1 5.5-.5-.15.15-1.65.75-1.7.4m.45 4.2Q11.85 18 8.75 19.6q-.7.45-1.45.85 2.85-2.1 5.95-3.45l3.85-1.3.1-.15.45.1-2.75.8M.6 20.15q-3.2-2.05-6.7-3.4l-1.75-.7-.95-.4 3.6 1.15q3.55 1.2 6.6 3.75l-.8-.4m1.7-6.65-.1-.1.15-.25.15-.1.35-.05h.8l.2.8-1.15-.05-.4-.25M19.55-1.6l.15-.1-.05.15-.1-.05m-.15.1-3.75 3.45q-2.5 2.25-5.45 3.9l-4.95 2.8L19.4-1.5M3.85 9.1 2.6 8.4l-6.3-3.95q-2.65-1.7-5.05-3.7L-9.9-.45l-1.2-1.25L4 9.1h-.05v.05l-.1-.05m4.15 8-1.25-1.15 6.15-.25-2 .7-.2.25.05.2.25.25-.4.2H9.1L8 17.1m9.55-2.2.05-.2-.75.15 1.05-.35-.35.4m.4-.45-5.6.9-8.55.35 1.2-.6 7.15-.15 4.65-.5h1.15M3.65 15.7h-.1l-4.8-.15-8.2-1.1.25.5h-.1l-.4-.8 12.3.9.35.2.7.45M-5.1 4.6l.6 1.1-1.85-.35.1 1.75-.6-1.8q-.55-1.8-1.9-3.2l2.45 1.55 1.2.95" fill="#fff" transform="translate(12.3 2.35)"/><path d="m19.65-1.55.05-.15-.15.1.1.05.65.75-.65 1.25-.1.25-.2.3q-1.15 2.4-.8 5.05l-.55.7q-.3-1.85.35-3.55l1-2.2.2-.3.1-.25.65-1.25-.65-.75m-.25.05.1-.15.05.05-.05-.05-.1.15L5.25 8.65l4.95-2.8q2.95-1.65 5.45-3.9L19.4-1.5M4.4 9.15l.85-.5-.85.5L4 9.1-11.1-1.7l1.2 1.25 1.15 1.2q2.4 2 5.05 3.7L2.6 8.4l1.25.7.15.1q.3.75.1 1.65l-.05.35.15-.15q.85-.95.2-1.9M-11.2.55l-.65-1.2.75-1 1.2 1.2-1.2-1.2-.75 1 .65 1.2 1.25 2.65q.75 1.7.35 3.55l-.5-.55q.6-1.1.25-2.35-.55-1.75-1.35-3.3M17.05 6.1q.2-2.85 1.9-5.5L12.9 5.45 8.4 8.3l-1.3.75q-.85.6-1.9.4l-.15.7.4.7 3.45.45q4.05.35 7.8-1.1l.35-4.1M8 17.1l1.1.2h1.5l.4-.2-.25-.25-.05-.2.2-.25 2-.7-6.15.25L8 17.1m-6.25 2q1.75-1.65 3.7-2.65l1.8-.75-3.4.3-13.05-1.05-.25-.5 8.2 1.1 4.8.15h.1l.05.05.1-.05 8.55-.35 5.6-.9-.05.05-1.05.35.75-.15-.05.2-.35.65-.1.15-3.85 1.3q-3.1 1.35-5.95 3.45l-4.85.25-1.05-.15Q-1.65 18-5.2 16.8l-3.6-1.15-.4-.65q3.45.35 6.45 2L-1 18.05l-2.35-1.35 4.9 3.7 3.2.3 1.4-.4q1.45-.6 2.8-1.4l-7.2.2" fill="#63d3d5" transform="translate(12.3 2.35)"/><path d="m17.05 6.1-.35 4.1q-3.75 1.45-7.8 1.1l-3.45-.45-.4-.7.15-.7q1.05.2 1.9-.4l1.3-.75 4.5-2.85L18.95.6q-1.7 2.65-1.9 5.5M13.2 9.95l1.4-.75q.75-.7 1.15-1.75l.15-.55q-.45 2-2.5 2.65-2.85 1.1-5.95 1.25l4.15-.1 1.6-.75M-1.65 11.3l-1.55-.1-5.05-1.1q.1-3.8-.9-7.4Q-9.5 1.5-10.5.45l4.2 3.2-2.45-1.55q1.35 1.4 1.9 3.2l.6 1.8-.1-1.75 1.85.35-.6-1.1 4.55 3.25q1.8 1.2 3.8 1.5l.3.65-.15.4-.4.3-4.65.6m9.1-.5h-.3.3M-9.2 14.95 3.85 16l3.4-.3-1.8.75q-1.95 1-3.7 2.65L-1 18.05-2.75 17q-3-1.65-6.45-2l-.1-.05h.1m2.95-6.5.35.65q3.4 2.45 7.45 1.6-2.5 0-4.85-.75-1.65-.4-2.95-1.5" fill="#169295" transform="translate(12.3 2.35)"/><path d="M4.4 9.15q.65.95-.2 1.9l-.15.15.05-.35q.2-.9-.1-1.65l-.05-.05V9.1H4l.4.05m8.8.8-1.6.75-4.15.1q3.1-.15 5.95-1.25 2.05-.65 2.5-2.65l-.15.55q-.4 1.05-1.15 1.75l-1.4.75M1.75 19.1l7.2-.2q-1.35.8-2.8 1.4l-1.4.4-3.2-.3-4.9-3.7L-1 18.05l2.75 1.05m-8-10.65q1.3 1.1 2.95 1.5 2.35.75 4.85.75-4.05.85-7.45-1.6l-.35-.65" fill="#074f4d" transform="translate(12.3 2.35)"/><path d="m2.45 14.9-.15-.4q-.15-.55 0-1l.4.25.05.9q.45.5 1.2.45l.65-.2q.35-.7.15-1.25l-.2-.35-.9-.3h-.8l-.35.05.25-.3 1.55-.05.6.55-.1 1.55-.1.2q-.85.55-1.75.25l-.35-.2-.15-.15" fill="#85caf9" transform="translate(12.3 2.35)"/><path d="m3.65 13 .9.3.2.35q.2.55-.15 1.25l-.65.2q-.75.05-1.2-.45l-.05-.9 1.15.05-.2-.8" fill="#134e7a" transform="translate(12.3 2.35)"/></g></defs></svg>

<?xml version="1.0" encoding="UTF-8" standalone="no"?>
<svg xmlns:xlink="http://www.w3.org/1999/xlink" height="82.0px" width="84.85px" xmlns="http://www.w3.org/2000/svg">
  <g transform="matrix(1.0, 0.0, 0.0, 1.0, 37.4, 42.25)">
    <use height="38.95" transform="matrix(1.0, 0.0, 0.0, 1.0, -12.45, -17.95)" width="33.05" xlink:href="#sprite0"/>
    <use height="23.75" transform="matrix(1.0, 0.0, 0.0, 1.0, -12.3, -2.35)" width="32.75" xlink:href="#shape3"/>
  </g>
  <defs>
    <g id="sprite0" transform="matrix(1.0, 0.0, 0.0, 1.0, 16.5, 19.5)">
      <use height="38.0" transform="matrix(1.0, 0.0, 0.0, 1.0, -16.0, -19.0)" width="32.05" xlink:href="#sprite1"/>
      <use height="38.95" transform="matrix(1.0, 0.0, 0.0, 1.0, -16.5, -19.5)" width="33.05" xlink:href="#sprite2"/>
      <use height="12.85" transform="matrix(1.0, 0.0, 0.0, 1.0, -13.7, -14.1)" width="27.75" xlink:href="#shape2"/>
    </g>
    <g id="sprite1" transform="matrix(1.0, 0.0, 0.0, 1.0, -0.05, 0.0)">
      <use height="38.0" transform="matrix(1.0, 0.0, 0.0, 1.0, 0.05, 0.0)" width="32.05" xlink:href="#shape0"/>
    </g>
    <g id="shape0" transform="matrix(1.0, 0.0, 0.0, 1.0, -0.05, 0.0)">
      <path d="M27.35 7.4 Q29.5 11.55 30.9 16.15 32.35 20.85 32.05 25.65 31.7 30.6 27.85 33.75 24.05 36.95 19.1 37.8 L16.5 38.0 Q12.9 38.0 9.45 36.85 4.8 35.25 2.35 31.35 -0.2 27.4 0.05 23.0 0.25 18.6 2.05 13.7 3.85 8.75 7.0 5.05 10.1 1.3 14.7 0.1 L16.5 0.0 Q18.4 0.05 20.2 0.8 24.95 2.85 27.35 7.4" fill="#c98036" fill-rule="evenodd" stroke="none"/>
    </g>
    <g id="sprite2" transform="matrix(1.0, 0.0, 0.0, 1.0, 0.45, 0.5)">
      <use height="38.95" transform="matrix(1.0, 0.0, 0.0, 1.0, -0.45, -0.5)" width="33.05" xlink:href="#shape1"/>
    </g>
    <g id="shape1" transform="matrix(1.0, 0.0, 0.0, 1.0, 0.45, 0.5)">
      <path d="M27.35 7.4 Q24.95 2.85 20.2 0.8 17.55 -0.3 14.7 0.1 10.1 1.3 7.0 5.05 3.85 8.75 2.05 13.7 0.25 18.6 0.05 23.0 -0.2 27.4 2.35 31.35 4.8 35.25 9.45 36.85 14.1 38.4 19.1 37.8 24.05 36.95 27.85 33.75 31.7 30.6 32.05 25.65 32.35 20.85 30.9 16.15 29.5 11.55 27.35 7.4 Z" fill="none" stroke="#000000" stroke-linecap="round" stroke-linejoin="round" stroke-width="1.0"/>
    </g>
    <g id="shape2" transform="matrix(1.0, 0.0, 0.0, 1.0, 13.7, 14.1)">
      <path d="M9.85 -13.1 L10.3 -12.25 Q11.95 -9.9 14.05 -4.55 11.45 0.0 2.25 -1.75 L0.2 -2.95 0.2 -2.85 Q-1.1 -1.9 -1.95 -1.65 -11.2 -0.15 -13.7 -4.8 L-11.9 -8.7 Q-9.8 -12.75 -8.45 -13.8 L-5.1 -14.1 Q-2.75 -14.05 -1.15 -13.1 L-0.75 -12.9 -0.5 -12.7 0.35 -11.9 0.4 -11.95 0.4 -12.15 Q2.7 -15.0 9.05 -13.7 L9.1 -13.65 9.85 -13.1" fill="#f3b372" fill-rule="evenodd" stroke="none"/>
    </g>
    <g id="shape3" transform="matrix(1.0, 0.0, 0.0, 1.0, 12.3, 2.35)">
      <path d="M5.25 12.8 Q5.8 13.65 5.3 14.7 L5.1 15.0 5.0 15.1 3.8 15.7 3.7 15.75 3.65 15.7 2.95 15.25 Q3.85 15.55 4.7 15.0 L4.8 14.8 5.2 14.0 4.9 13.25 4.3 12.7 5.25 12.8 M4.0 8.35 L3.0 5.9 4.15 7.35 5.5 6.6 4.55 8.1 4.0 8.35" fill="#1c140c" fill-rule="evenodd" stroke="none"/>
      <path d="M4.55 8.1 Q12.45 3.85 19.3 -1.75 L19.15 -2.35 20.45 -1.75 20.4 0.0 20.15 0.8 19.9 0.9 19.85 0.8 Q18.75 2.85 18.75 4.95 L19.0 5.95 Q20.0 7.7 20.4 9.95 L20.35 10.95 19.55 11.9 14.45 12.25 16.15 11.85 17.8 11.1 17.95 10.95 12.45 11.45 6.05 11.55 -1.65 11.3 3.0 10.7 3.4 10.4 3.55 10.0 3.25 9.35 Q1.25 9.05 -0.55 7.85 L-5.1 4.6 -6.3 3.65 -10.5 0.45 Q-9.5 1.5 -9.15 2.7 -8.15 6.3 -8.25 10.1 L-3.2 11.2 -9.1 10.95 -9.2 11.4 0.35 12.3 6.3 12.6 7.95 12.65 5.25 12.8 4.3 12.7 2.75 12.75 -9.1 11.8 -11.05 11.35 -11.65 10.95 -12.0 10.95 -12.0 9.95 -11.95 9.95 Q-12.25 8.2 -11.2 6.65 L-10.7 6.3 Q-10.15 5.4 -10.45 4.25 -11.05 1.65 -12.3 -0.55 L-12.05 -1.8 Q-11.55 -2.05 -11.1 -2.35 L-6.15 1.35 -0.15 5.7 1.4 7.0 Q2.6 8.05 4.0 8.35 L4.55 8.1 M5.1 15.0 L18.3 13.8 18.4 14.3 18.35 14.75 18.05 15.65 16.35 16.25 14.9 16.45 17.65 15.65 17.2 15.55 17.55 14.9 17.9 14.5 17.95 14.45 16.8 14.45 12.15 14.95 5.0 15.1 5.1 15.0 M8.75 19.6 L9.65 19.7 Q6.45 22.15 2.4 21.1 L-0.05 20.45 0.6 20.15 1.4 20.55 2.45 20.7 7.3 20.45 Q8.05 20.05 8.75 19.6 M-7.85 16.05 L-9.3 16.05 Q-10.1 15.4 -10.15 14.2 L-10.1 13.2 Q-7.75 14.3 -5.25 14.35 L2.45 14.9 2.6 15.05 -9.7 14.15 -9.3 14.95 -9.2 15.0 -8.8 15.65 -7.85 16.05 M19.35 1.0 L18.35 3.2 Q17.7 4.9 18.0 6.75 L18.55 6.05 Q18.2 3.4 19.35 1.0 M4.0 9.2 L3.85 9.1 3.95 9.15 4.0 9.2 M-11.2 0.55 Q-10.4 2.1 -9.85 3.85 -9.5 5.1 -10.1 6.2 L-9.6 6.75 Q-9.2 4.9 -9.95 3.2 L-11.2 0.55 M18.0 6.75 L18.4 7.7 Q19.1 9.0 20.4 9.95 19.1 9.0 18.4 7.7 L18.0 6.75 M20.35 10.95 L17.95 10.95 20.35 10.95 M-11.95 9.95 L-10.65 8.35 -9.6 6.75 -10.65 8.35 -11.95 9.95 M-9.1 10.95 L-11.65 10.95 -9.1 10.95" fill="#2b0112" fill-rule="evenodd" stroke="none"/>
      <path d="M14.45 12.25 L12.65 12.5 7.95 12.65 6.3 12.6 0.35 12.3 -9.2 11.4 -9.1 10.95 -3.2 11.2 -1.65 11.3 6.05 11.55 12.45 11.45 17.95 10.95 17.8 11.1 16.15 11.85 14.45 12.25 M14.9 16.45 Q11.85 18.0 8.75 19.6 8.05 20.05 7.3 20.45 10.15 18.35 13.25 17.0 L17.1 15.7 17.2 15.55 17.65 15.65 14.9 16.45 M0.6 20.15 Q-2.6 18.1 -6.1 16.75 L-7.85 16.05 -8.8 15.65 -5.2 16.8 Q-1.65 18.0 1.4 20.55 L0.6 20.15 M2.3 13.5 L2.2 13.4 2.35 13.15 2.5 13.05 2.85 13.0 3.45 13.0 3.65 13.0 3.85 13.8 2.7 13.75 2.3 13.5 M19.55 -1.6 L19.7 -1.7 19.65 -1.55 19.55 -1.6 M19.4 -1.5 L15.65 1.95 Q13.15 4.2 10.2 5.85 L5.25 8.65 19.4 -1.5 M3.85 9.1 L2.6 8.4 -3.7 4.45 Q-6.35 2.75 -8.75 0.75 L-9.9 -0.45 -11.1 -1.7 4.0 9.1 3.95 9.1 3.95 9.15 3.85 9.1 M8.0 17.1 L6.75 15.95 12.9 15.7 10.9 16.4 10.7 16.65 10.75 16.85 11.0 17.1 10.6 17.3 9.1 17.3 8.0 17.1 M17.55 14.9 L17.6 14.7 16.85 14.85 17.9 14.5 17.55 14.9 M17.95 14.45 L12.35 15.35 3.8 15.7 5.0 15.1 12.15 14.95 16.8 14.45 17.95 14.45 M3.65 15.7 L3.55 15.7 -1.25 15.55 -9.45 14.45 -9.2 14.95 -9.3 14.95 -9.7 14.15 2.6 15.05 2.95 15.25 3.65 15.7 M-5.1 4.6 L-4.5 5.7 -6.35 5.35 -6.25 7.1 -6.85 5.3 Q-7.4 3.5 -8.75 2.1 L-6.3 3.65 -5.1 4.6" fill="#ffffff" fill-rule="evenodd" stroke="none"/>
      <path d="M19.65 -1.55 L19.7 -1.7 19.55 -1.6 19.65 -1.55 20.3 -0.8 19.65 0.45 19.55 0.7 19.35 1.0 Q18.2 3.4 18.55 6.05 L18.0 6.75 Q17.7 4.9 18.35 3.2 L19.35 1.0 19.55 0.7 19.65 0.45 20.3 -0.8 19.65 -1.55 M19.4 -1.5 L19.5 -1.65 19.55 -1.6 19.5 -1.65 19.4 -1.5 5.25 8.65 10.2 5.85 Q13.15 4.2 15.65 1.95 L19.4 -1.5 M4.4 9.15 L5.25 8.65 4.4 9.15 4.0 9.1 -11.1 -1.7 -9.9 -0.45 -8.75 0.75 Q-6.35 2.75 -3.7 4.45 L2.6 8.4 3.85 9.1 4.0 9.2 Q4.3 9.95 4.1 10.85 L4.05 11.2 4.2 11.05 Q5.05 10.1 4.4 9.15 M-11.2 0.55 L-11.85 -0.65 -11.1 -1.65 -9.9 -0.45 -11.1 -1.65 -11.85 -0.65 -11.2 0.55 -9.95 3.2 Q-9.2 4.9 -9.6 6.75 L-10.1 6.2 Q-9.5 5.1 -9.85 3.85 -10.4 2.1 -11.2 0.55 M17.05 6.1 Q17.25 3.25 18.95 0.6 L12.9 5.45 8.4 8.3 7.1 9.05 Q6.25 9.65 5.2 9.45 L5.05 10.15 5.45 10.85 8.9 11.3 Q12.95 11.65 16.7 10.2 L17.05 6.1 M8.0 17.1 L9.1 17.3 10.6 17.3 11.0 17.1 10.75 16.85 10.7 16.65 10.9 16.4 12.9 15.7 6.75 15.95 8.0 17.1 M1.75 19.1 Q3.5 17.45 5.45 16.45 L7.25 15.7 3.85 16.0 -9.2 14.95 -9.45 14.45 -1.25 15.55 3.55 15.7 3.65 15.7 3.7 15.75 3.8 15.7 12.35 15.35 17.95 14.45 17.9 14.5 16.85 14.85 17.6 14.7 17.55 14.9 17.2 15.55 17.1 15.7 13.25 17.0 Q10.15 18.35 7.3 20.45 L2.45 20.7 1.4 20.55 Q-1.65 18.0 -5.2 16.8 L-8.8 15.65 -9.2 15.0 Q-5.75 15.35 -2.75 17.0 L-1.0 18.05 -3.35 16.7 1.55 20.4 4.75 20.7 6.15 20.3 Q7.6 19.7 8.95 18.9 L1.75 19.1" fill="#63d3d5" fill-rule="evenodd" stroke="none"/>
      <path d="M17.05 6.1 L16.7 10.2 Q12.95 11.65 8.9 11.3 L5.45 10.85 5.05 10.15 5.2 9.45 Q6.25 9.65 7.1 9.05 L8.4 8.3 12.9 5.45 18.95 0.6 Q17.25 3.25 17.05 6.1 M13.2 9.95 L14.6 9.2 Q15.35 8.5 15.75 7.45 L15.9 6.9 Q15.45 8.9 13.4 9.55 10.55 10.65 7.45 10.8 L11.6 10.7 13.2 9.95 M-1.65 11.3 L-3.2 11.2 -8.25 10.1 Q-8.15 6.3 -9.15 2.7 -9.5 1.5 -10.5 0.45 L-6.3 3.65 -8.75 2.1 Q-7.4 3.5 -6.85 5.3 L-6.25 7.1 -6.35 5.35 -4.5 5.7 -5.1 4.6 -0.55 7.85 Q1.25 9.05 3.25 9.35 L3.55 10.0 3.4 10.4 3.0 10.7 -1.65 11.3 M7.45 10.8 L7.15 10.8 7.45 10.8 M-9.2 14.95 L3.85 16.0 7.25 15.7 5.45 16.45 Q3.5 17.45 1.75 19.1 L-1.0 18.05 -2.75 17.0 Q-5.75 15.35 -9.2 15.0 L-9.3 14.95 -9.2 14.95 M-6.25 8.45 L-5.9 9.1 Q-2.5 11.55 1.55 10.7 -0.95 10.7 -3.3 9.95 -4.95 9.55 -6.25 8.45" fill="#169295" fill-rule="evenodd" stroke="none"/>
      <path d="M4.4 9.15 Q5.05 10.1 4.2 11.05 L4.05 11.2 4.1 10.85 Q4.3 9.95 4.0 9.2 L3.95 9.15 3.95 9.1 4.0 9.1 4.4 9.15 M13.2 9.95 L11.6 10.7 7.45 10.8 Q10.55 10.65 13.4 9.55 15.45 8.9 15.9 6.9 L15.75 7.45 Q15.35 8.5 14.6 9.2 L13.2 9.95 M1.75 19.1 L8.95 18.9 Q7.6 19.7 6.15 20.3 L4.75 20.7 1.55 20.4 -3.35 16.7 -1.0 18.05 1.75 19.1 M-6.25 8.45 Q-4.95 9.55 -3.3 9.95 -0.95 10.7 1.55 10.7 -2.5 11.55 -5.9 9.1 L-6.25 8.45" fill="#074f4d" fill-rule="evenodd" stroke="none"/>
      <path d="M2.45 14.9 L2.3 14.5 Q2.15 13.95 2.3 13.5 L2.7 13.75 2.75 14.65 Q3.2 15.15 3.95 15.1 L4.6 14.9 Q4.95 14.2 4.75 13.65 L4.55 13.3 3.65 13.0 3.45 13.0 2.85 13.0 2.5 13.05 2.75 12.75 4.3 12.7 4.9 13.25 4.8 14.8 4.7 15.0 Q3.85 15.55 2.95 15.25 L2.6 15.05 2.45 14.9" fill="#85caf9" fill-rule="evenodd" stroke="none"/>
      <path d="M3.65 13.0 L4.55 13.3 4.75 13.65 Q4.95 14.2 4.6 14.9 L3.95 15.1 Q3.2 15.15 2.75 14.65 L2.7 13.75 3.85 13.8 3.65 13.0" fill="#134e7a" fill-rule="evenodd" stroke="none"/>
    </g>
  </defs>
</svg>
